!!!SOCIAL_FUNCTION:	cochiti
!!!PDT:	1957
!!!OTL: No_65_Corn-grinding_Song.krn
!!!LING_GROUP: Keresan
!!!LANG: Tone
!!!REG: Southwest
**kern
*staff1
=1-
*clefF4
*k[f#]
*M2/4
16B\LK
8.G\J
4G\
=2
16B\LL
16G\J
8G\J
8G\L
8G\J
=3
8r
8G\
4G\
=4!|:
*M3/4
4g\
8g\
8r
8.g\L
16e\Jk
=5
*M2/4
4g\
8g\
8r
=6
4g\
8g\L
8e\J
=7
8g\L
8e\J
8d\
8r
=8
8d\L
16d\L
16d\JJ
16d\LL
16G\
16B\
16G\JJ
=9
16B\
16r
8G\
8G\
8r
=10
16B\LL
16G\J
8G\J
8G\L
8G\J
=11
*M3/4
16B\LK
8.G\J
4G\
4r
=12
*M3/8
8G\L
8G\
8G\J
=13:|!
*M2/4
8B\L
8G\J
8G\L
8B\J
=14
8.d\L
16d\Jk
16d\LL
16B\
16d\
16B\JJ
=15
8d\L
8B\J
8B\L
16.G\L
32B\JJk
=16
8G\L
8G\J
8G\
16r
16B\
=17
16d\LK
8.G\J
16B\LK
8G\
16B\Jk
=18
8G\L
8G\J
8G\
8r
=19
*M3/4
16B\LK
8.G\J
4B\
8G\
8r
=20!|:
*M2/4
4e\
8g\L
8e\J
=21
16e\LK
8.d\J
16d\LL
16A\JJ
16r
16d\
=22
8d\L
8B\J
8G\
8r
=23
*M3/4
16B\LK
8.G\J
16d\LK
8.B\J
8d\L
16d\L
16B\JJ
=24
*M2/4
4G\
8.G\L
16D\Jk
=25
8G\L
8G\J
8G\
8r
=26
8B\L
16G\L
16G\JJ
8G\L
8G\J
=27
8G\L
8G\J
8G\
8r
=28
8B\L
8G\J
8G\L
8G\J
=29
8G\L
8G\J
8G\
8r
=30
16B\LK
8.G\J
8G\L
8B\J
=31
*M3/4
8.d\L
16d\Jk
12d\L
12B\
12d\J
16d\LK
8.B\J
=32
12B\L
12G\
12B\J
8G\L
16G\L
16G\JJ
8G\
16r
16B\
=33
*M2/4
16d\LK
8.G\J
16B\LK
8G\
16B\Jk
=34
8G\L
8G\J
8G\
8r
=35
*M3/4
16B\LK
8.G\J
4B\
8G\
8r
=36:|!
*M2/4
8B\L
8G\J
8G\L
8G\J
=37
8G\L
8G\J
4G\
=38
4G\
4G\
==
*-
